src/dark/hiso font dark_d.svg

<svg xmlns="http://www.w3.org/2000/svg" width="90" height="126" viewBox="0 0 90 126"><path fill="#000101" d="M18 18l-18 9v72l36 18 36-18v-54l-54-27zm18 95.65l-33-16.5v-68.3l15-7.5 32.65 16.33-14.65 7.32v68.65zm29.3-14.65l-26.3-13.15v-3.35l29.65 14.82-3.35 1.68z"/><text transform="translate(-324 -18)" fill="#F80071" font-family="'MyriadPro-Regular'" font-size="72">Letters 1-16</text></svg>

<svg xmlns="http://www.w3.org/2000/svg" width="90" height="126"><path fill="#000101" d="M18 18L0 27v72l36 18 36-18V45L18 18zm18 95.65L3 97.15v-68.3l15-7.5 32.65 16.33L36 45v68.65zM65.3 99L39 85.85V82.5l29.65 14.82L65.3 99z"/><text transform="translate(-324 -18)" fill="#F80071" font-family="'MyriadPro-Regular'" font-size="72">Letters 1-16</text></svg>
